X:1
T:Title
%%score { ( 1 3 ) | 2 }
L:1/8
M:4/4
K:G
V:1 treble nm="Grand Piano"
V:3 treble 
V:2 bass 
V:1
 z4 z2 z[Q:1/4=100] D | GGGA B2 Bc | d2 d2 G2 AG | GFF=F ^F2 [Fc]2 | c2 B2 B3 D | GGGA B2 Bc | %6
 d2 d2 G2 FG | [EA][EA][EB][EB] [Ec]2 [EB][CEA] | [B,DG]2 [A,DF]2 [B,DG]4 | d2 d2 B2 GA | %10
 B2 G2 E2 D2 | d2 d2 B2 G2 | [GB]2 [FA]2 [FA]4 | BBBB c2 B2 | A2 G2 E4 | [Dd]2 [DG]c B2 A2 | %16
[M:7/8] [B,DG]-[B,DG]-[B,DG]- [B,DG]3 z |] %17
V:2
 z4 z2 z [G,B,] | [G,B,D][G,B,D][G,B,D][G,CD][K:treble] [G,DG]2 [G,DG][G,A,G] | %2
 [G,B,G]2 [G,B,G]2[K:bass] [G,B,D]2 [G,B,D][G,B,D] | [A,CD][A,CD][A,CD][A,CD] [D,CD]2 [D,A,]2 | %4
 [G,E]2 [G,D]2 [G,D]3 [G,B,] | [G,B,D][G,B,D][G,B,D][G,CD] [G,DG]2 [G,DG][G,A,G] | %6
 [G,B,G]2 [G,B,G]2[K:bass] [G,B,D]2 [A,CD][G,B,D] | %7
 [C,A,][C,A,][B,,^G,][B,,G,] [A,,A,]2 [B,,=G,]C, | D,2 D,2 G,,4 | %9
 [G,B,G]2 [G,B,G]2 [G,DG]2 [G,B,D][G,CD] | [G,DG]2 [G,B,D]2 [G,C]2 [G,B,]2 | %11
 [G,B,G]2 [G,B,G]2 [G,DG]2[K:bass] [G,B,D]2 | [D,D]2 [D,D]2 [D,D]4 | %13
 [G,DG][G,DG][G,DG][G,DG] [G,EG]2 [G,DG]2 | [C,C]4 [C,G,C]4 | %15
 [B,,G,]2 [B,,G,][E,G,D] [D,G,D]2 [D,CD]2 |[M:7/8] G,,-G,,-G,,- G,,3 z |] %17
V:3
 x8 | x8 | x8 | x8 | x8 | x8 | x8 | x8 | x8 | x8 | x8 | x8 | x8 | x8 | E4 z4 | x8 |[M:7/8] x7 |] %17

